public/Logo.svg

<svg xmlns="http://www.w3.org/2000/svg" width="161" height="160" fill="none" xmlns:v="https://vecta.io/nano"><path d="M4.5 146v-2l4-1.4c4.533-1.467 6.8-5.267 6.8-11.4V28.8c0-2.667-.333-4.8-1-6.4-.533-1.6-2.067-2.933-4.6-4L4.5 16v-2h38.6l37 96.8L114.9 14h39.4v2l-3.2 1.2c-2.533.933-4.267 2.267-5.2 4-.933 1.6-1.4 3.733-1.4 6.4v104.6c0 2.667.333 4.733 1 6.2s2.267 2.733 4.8 3.8l4 1.8v2h-49.8v-2l4.2-1.8c2.533-1.067 4.133-2.333 4.8-3.8s1-3.533 1-6.2v-45l.4-57.2-41.8 116h-10L19.5 31.4l.6 49.8v50.4c0 2.933.4 5.333 1.2 7.2.933 1.733 2.667 3 5.2 3.8l4.4 1.4v2H4.5z" fill="#000"/></svg>

<svg width="161" height="160" viewBox="0 0 161 160" fill="none" xmlns="http://www.w3.org/2000/svg">
<path d="M4.5 146V144L8.5 142.6C13.0333 141.133 15.3 137.333 15.3 131.2V28.8C15.3 26.1333 14.9667 24 14.3 22.4C13.7667 20.8 12.2333 19.4667 9.7 18.4L4.5 16V14H43.1L80.1 110.8L114.9 14H154.3V16L151.1 17.2C148.567 18.1333 146.833 19.4667 145.9 21.2C144.967 22.8 144.5 24.9333 144.5 27.6V132.2C144.5 134.867 144.833 136.933 145.5 138.4C146.167 139.867 147.767 141.133 150.3 142.2L154.3 144V146H104.5V144L108.7 142.2C111.233 141.133 112.833 139.867 113.5 138.4C114.167 136.933 114.5 134.867 114.5 132.2V87.2L114.9 30L73.1 146H63.1L19.5 31.4L20.1 81.2V131.6C20.1 134.533 20.5 136.933 21.3 138.8C22.2333 140.533 23.9667 141.8 26.5 142.6L30.9 144V146H4.5Z" fill="currentColor"/>
</svg>
